src/lib/packages/icons/src/assets/filled/home-dash.svg

<svg width="24" height="24" viewBox="0 0 24 24" fill="none" xmlns="http://www.w3.org/2000/svg">
<path fill-rule="evenodd" clip-rule="evenodd" d="M20.2701 9.06205L13.5881 3.56901C12.6651 2.81001 11.3341 2.81001 10.4111 3.56901L3.73003 9.06205C3.16903 9.52305 2.90203 10.251 3.03203 10.965L4.48711 18.9471C4.70411 20.1351 5.73909 20.9991 6.94609 20.9991H17.052C18.26 20.9991 19.295 20.1351 19.511 18.9471L20.966 10.964C21.098 10.252 20.8311 9.52305 20.2701 9.06205ZM14 17.75H10C9.58605 17.75 9.25005 17.414 9.25005 17C9.25005 16.586 9.58605 16.25 10 16.25H14C14.414 16.25 14.75 16.586 14.75 17C14.75 17.414 14.414 17.75 14 17.75Z" fill="currentColor"/>
</svg>

<svg xmlns="http://www.w3.org/2000/svg" width="24" height="24" fill="none"><path fill="currentColor" fill-rule="evenodd" d="m20.27 9.062-6.682-5.493a2.501 2.501 0 0 0-3.177 0L3.73 9.062a1.999 1.999 0 0 0-.698 1.903l1.455 7.982A2.5 2.5 0 0 0 6.947 21h10.105a2.5 2.5 0 0 0 2.459-2.052l1.455-7.983a1.993 1.993 0 0 0-.696-1.902ZM14 17.75h-4a.75.75 0 0 1 0-1.5h4a.75.75 0 0 1 0 1.5Z" clip-rule="evenodd"/></svg>
